assets/img/map-pin.svg

<svg xmlns="http://www.w3.org/2000/svg" width="200" height="280" viewBox="0 0 200 280"><path fill="#E41D0C" d="M99.999 4.313C46.979 4.313 4 47.295 4 100.316c0 53.022 95.999 175.372 95.999 175.372S196 153.339 196 100.316c0-53.021-42.978-96.003-96.001-96.003z"/><path fill="#FFF" d="M137.522 32.581l-4.059 11.258 2.992 1.118 4.313-11.159-3.246-1.217zm17.122 7.796l-5.852 10.45 2.766 1.582 6.1-10.296-3.014-1.736zm-97.688 78.736l6.295-.625-7.707-8.537-5.807.651 7.219 8.511zm.125 1.953l12.889 53.096 22.76-20.875-10.379-5.623 9.287-6.654-34.557-19.944zm67.164 49.289l-53.129 4.648 22.916-21.012 30.213 16.364zm.883-1.112l4.068-53.47-44.473 31.739 40.405 21.731zm3.601-56.533l5.633-9.63-5.834.361-6.104 9.747 6.305-.478zM98.39 58.795c8.85 14.911-20.652 25.637-6.902 45.88-5.645-21.344 16.891-28.864 6.889-45.88h.013zM82.153 25.51c27.91 22.585-19.865 63.84 12.947 85.154-29.201-22.908 22.35-57.579-12.947-85.154m46.649 88.83L92.89 140.112 58.821 120.46l47.43-4.152 30.646-85.079 5.24 1.959-32.121 82.791 1.189-.102 43.033-76.936 4.861 2.794-43.668 73.772 13.371-1.167z"/></svg>

<?xml version="1.0" encoding="utf-8"?>
<!-- Generator: Adobe Illustrator 16.0.0, SVG Export Plug-In . SVG Version: 6.00 Build 0)  -->
<!DOCTYPE svg PUBLIC "-//W3C//DTD SVG 1.1//EN" "http://www.w3.org/Graphics/SVG/1.1/DTD/svg11.dtd">
<svg version="1.1" xmlns="http://www.w3.org/2000/svg" xmlns:xlink="http://www.w3.org/1999/xlink" x="0px" y="0px" width="200px"
	 height="280px" viewBox="0 0 200 280" enable-background="new 0 0 200 280" xml:space="preserve">
<g id="Layer_2">
</g>
<g id="XMLID_1_">
</g>
<g id="Layer_6" display="none">
</g>
<g id="Layer_7">
</g>
<g id="Layer_5" display="none">
</g>
<g id="prices">
</g>
<g id="Layer_3">
	<g>
		<path fill="#E41D0C" d="M99.999,4.313C46.979,4.313,4,47.295,4,100.316c0,53.022,95.999,175.372,95.999,175.372
			S196,153.339,196,100.316C196,47.295,153.022,4.313,99.999,4.313z"/>
		<path fill="#FFFFFF" d="M137.522,32.581l-4.059,11.258l2.992,1.118l4.313-11.159L137.522,32.581z M154.644,40.377l-5.852,10.45
			l2.766,1.582l6.1-10.296L154.644,40.377z M56.956,119.113l6.295-0.625l-7.707-8.537l-5.807,0.651L56.956,119.113z M57.081,121.066
			l12.889,53.096l22.76-20.875l-10.379-5.623l9.287-6.654L57.081,121.066z M124.245,170.355l-53.129,4.648l22.916-21.012
			L124.245,170.355z M125.128,169.243l4.068-53.47l-44.473,31.739L125.128,169.243z M128.729,112.71l5.633-9.63l-5.834,0.361
			l-6.104,9.747L128.729,112.71z M98.39,58.795c8.85,14.911-20.652,25.637-6.902,45.88c-5.645-21.344,16.891-28.864,6.889-45.88
			H98.39z M82.153,25.51c27.91,22.585-19.865,63.84,12.947,85.154C65.899,87.756,117.45,53.085,82.153,25.51 M128.802,114.34
			L92.89,140.112L58.821,120.46l47.43-4.152l30.646-85.079l5.24,1.959l-32.121,82.791l1.189-0.102l43.033-76.936l4.861,2.794
			l-43.668,73.772L128.802,114.34z"/>
	</g>
</g>
<g id="Dimension_Layer">
</g>
</svg>
